X: 96
T:Bourree (2 time)
M:2/4
L:1/8
R:Bourree
Z:Steve Mansfield
K:Dm
D>EFG | A3A/=B/ | c>=B AG | AGFE | D>EFG | A3A/=B/ | 
c>=B AG |1 A4 :|2 A3A |: B>AGF | EFGF/G/ | AGFE | 
FEDA | B>AGF | EFGF/G/ | AGFE |1 D3A :|2 D4 ||
<end>
<start>
